X:1
T:Cleansing Fountain, CMD
T:Cleansing Fountain, CMD
T:19th Century Camp Meeting Tune
T:Public Domain Courtesy of the Cyber Hymnal™
C:19th Century Camp Meeting Tune
Z:Public Domain
Z:Courtesy of the Cyber Hymnal™
%%score ( 1 2 ) ( 3 4 )
L:1/8
Q:1/4=110
M:4/4
K:Bb
V:1 treble 
V:2 treble 
V:3 bass 
V:4 bass 
V:1
 B,-[B,D] | [DF]3 [EG] [DF]2 [FB]2 | [EB]3 [EG] [DF]2 B,-[B,D] | [DF]3 [DF] [EG][DF] [B,D]B, | %4
 [A,C]6 B,D | [DF]3 [EG] [DF]2 [FB]2 | [EB]3 [EG] [DF]2 [DB][Ec] | [Fd]3 [DB] [Ec]2 [Fd]2 | %8
 [DB]6 [DB][Ec] | [Fd]3 [DB] [Ec]2 [Fd]2 | [GB]3- [EG] [GB]2 [EG]2 | [DF]3 [DF] [EG][DF] DB, | %12
 [A,C]6 B,[B,D] | [DF]3 [EG] [DF]2 [FB]2 [EB]3 [EG] [DF]2 [DB][Ec] | [Fd]3 [DB] [Ec]2 [Fd]2 | %15
 [DB]6 |] %16
V:2
 x2 | x8 | x8 | x8 | x8 | x8 | x8 | x8 | x8 | x8 | x8 | x6 B,2 | x8 | x16 | x8 | x6 |] %16
V:3
 D,F, | [B,,B,]3 [B,,B,] [B,,B,]2 [D,F,]2 | [E,G,]3 [E,B,] [B,,B,]2 D,F, | %3
 [B,,B,]3 [B,,B,] [B,,B,]2 F,2 | F,6 D,F, | [B,,B,]3 [B,,B,] [B,,B,]2 [D,F,]2 | %6
 [E,G,]3 [E,B,] [B,,B,]2 [B,,B,]2 | [B,,B,]3 [B,,B,] [F,A,]2 F,2 | [B,,F,]6 B,2 | %9
 B,3 B, [F,A,]2 [B,,B,]2 | [E,B,]6 [E,B,]2 | [B,,B,]3 [B,,B,] [B,,B,]2 F,2 | F,6 D,F, | %13
 [B,,B,]3 [B,,B,] [B,,B,]2 [D,F,]2 [E,G,]3 [E,B,] [B,,B,]2 [B,,B,]2 | %14
 [B,,B,]3 [B,,B,] [F,A,]2 F,2 | [B,,F,]6 |] %16
V:4
 B,,2 | x8 | x6 B,,2 | x6 B,,D, | x6 B,,2 | x8 | x8 | x8 | x8 | x8 | x8 | x6 B,,D, | x6 B,,2 | %13
 x16 | x8 | x6 |] %16

